X: 1
T: BRAZEN MASK -- REEL
B: Ryan's Mammoth Collection of Fiddle Tunes
R: REEL
M: 2/4
L: 1/16
Z: Contributed 20000424211944 by Ivan Bradley bradleyi:peoplepc.com
K: A
(uAB)|\
vcAGA FAEA | cAGA a2(gf) | eAGA FAEA | c2 z2 (uB"4"e)^d=d |
cAGA FAEA  | cAGA a2(gf) | eAGA FAEA | c"4"edB A2 :|
|: (ucd) |\
"4"e^df"0"e aecA | BcBA GEFG | AGBA cBdc | e^dfe Bc=d^d |
e^dfe aecA | BcBA GEFG | Aagf edce | (3gfe (3dcB A2 :|
